dist/svgs/devices-full.svg

<!-- Generated by IcoMoon.io -->
<svg version="1.1" xmlns="http://www.w3.org/2000/svg" width="24" height="24" viewBox="0 0 24 24">
<title>devices-full</title>
<path d="M22 8h-6c-1.103 0-2 0.897-2 2v12c0 1.103 0.897 2 2 2h6c1.103 0 2-0.897 2-2v-12c0-1.103-0.897-2-2-2zM22 20h-6v-10h6v10z"></path>
<path d="M21 0h-19c-1.103 0-2 0.897-2 2v14c0 1.103 0.897 2 2 2h10v-3h-5c-0.552 0-1-0.447-1-1v-10c0-0.553 0.448-1 1-1h12c0.552 0 1 0.447 1 1v2h3v-4c0-1.103-0.897-2-2-2zM3 10c-0.552 0-1-0.448-1-1s0.448-1 1-1 1 0.448 1 1c0 0.552-0.448 1-1 1z"></path>
</svg>

<svg xmlns="http://www.w3.org/2000/svg" width="24" height="24"><path d="M22 8h-6c-1.103 0-2 .897-2 2v12c0 1.103.897 2 2 2h6c1.103 0 2-.897 2-2V10c0-1.103-.897-2-2-2zm0 12h-6V10h6v10z"/><path d="M21 0H2C.897 0 0 .897 0 2v14c0 1.103.897 2 2 2h10v-3H7a1 1 0 0 1-1-1V4a1 1 0 0 1 1-1h12a1 1 0 0 1 1 1v2h3V2c0-1.103-.897-2-2-2zM3 10a1 1 0 1 1 0-2 1 1 0 0 1 0 2z"/></svg>
